X:1
T:6 Songs, Op.7
T:Treue Liebe
T:1. Treue Liebe
T:Johannes Brahms
T:Eduard Ferrand  (Eduard Schulz)
T:6 Songs, Op.7
T:OpenScore (CC0)
T:OpenScore (CC0)
T:OpenScore (CC0)
C:Johannes Brahms
Z:Eduard Ferrand (Eduard Schulz)
Z:OpenScore (CC0)
%%score ( 1 2 ) { ( 3 6 ) | ( 4 5 ) }
L:1/8
Q:1/4=75
M:6/8
K:A
V:1 treble nm="Singstimme\nVoice"
V:2 treble 
V:3 treble nm="Pianoforte"
V:6 treble 
V:4 bass 
V:5 bass 
V:1
"^Andante con espressione" z2 z z2!p! G | A2 G A A G | c2 A F2 F |!<(! F3/2 F/ F (.=G .A ._B)!<)! | %4
w: Ein|Mägd- lein sass * am|Mee- res- strand und|blick- te voll Sehn- sucht ins|
w: Der|A- bend nah- te, die|Son- ne sank am|Saum * des Him- mels dar-|
[Q:1/4=60]"^rit."!mf!!>(! d3 A2!>)!!pp! A |[Q:1/4=75]"^a tempo" A3/2 A/ G A A G | %6
w: Wei- te: " Wo|bleibst du, mein Lieb- ster, wo|
w: nie- der. " So|trägt dich die Wel- le mir|
 c3/2 c/ A F2!pp! E |!<(! ^D2!<)! E!>(! F F!>)! E |!<(! ^D D!<)! E!>(! F2!>)!"^cresc." F | %9
w: weilst du so lang? Nicht|ru- hen lässt mich des|Her- * zens Drang. Ach,|
w: nim- mer zu- rück? Ver-|ge- bens späht in die|Fer- ne mein Blick. Wo|
!<(! E E!<)! F!mf!!>(! =G G!>)! F |!<(! (E2!<)! F) =G2!f! e | (.d .d .c .B .B .A) | %12
w: kämst du, mein Lieb- ster, doch|heu- * te, ach,|kämst du, mein Lieb- ster, doch|
w: find ich, mein Lieb- ster, dich|wie- * der. wo|find ich, mein Lieb- ster, dich|
!<(! (^G3!<)!!>(! d3)!>)! |!p!!>(! c6!>)! :| z2 z z2!mp! G | A3/2 A/ G A A G | c3/2 c/ A F2 F | %17
w: heu- *|te! "|Die|Was- ser um- spiel- ten ihr|schmei- chelnd den Fuss, wie|
w: wie- *|der? "||||
 B3/2"^cresc." B/ B d d d | c3!f! A z!mp! A |"^cresc." A3/2 A/ A A A!f! A |!<(! (d3!<)! _e) _B =c | %21
w: Träu- me von se- li- gen|Stun- den, es|zog sie zur Tie- fe mit|stil- * ler Ge-|
w: ||||
!>(! d6-!>)! |!p! d2 z z2 z |[Q:1/4=65] z2 z z2!p! A | %24
w: \- walt;|_|nie|
w: |||
[Q:1/4=75]"^a tempo""^espressivo" A A G!<(! A A!<)! G |!>(! (.d .d!>)! .A)!<(! F2!<)! c | %26
w: stand mehr am U- fer die|hol- de Ge- stalt, sie|
w: ||
({ce)} (.d .c .B .B .A .=G) |[Q:1/4=70]!<(! (c6[Q:1/4=66]!<)! | %28
w: hat den Ge- lieb- ten ge-|\- fun-|
w: ||
!f![Q:1/4=64]!>(! !>!d3-) (d2!>)! c) |[Q:1/4=75]"^a tempo"!>(! F6-!>)! |!pp! F3- F2 z | z6 | z6 | %33
w: |den!|_ _|||
w: |||||
 z6 | z6 | !fermata!z6 |] %36
w: |||
w: |||
V:2
 x6 | x3 A2 x | x6 | F2 x4 | x6 | x6 | x6 | x6 | ^D2 x4 | x6 | x6 | x6 | x6 | x6 :| x6 | x6 | x6 | %17
 x6 | x6 | x6 | x6 | x6 | x6 | x6 | x6 | x6 | x6 | x2 x"^rit." x x2 | x6 | x6 | x6 | x6 | x6 | x6 | %34
 x6 | x6 |] %36
V:3
 z (F/A/^E/G/) z (F/A/E/G/) | z (F/A/^E/G/) z (F/A/E/G/) | z (A/c/C/F/) z (F/A/A,/C/) | %3
 z (D/F/A,/D/) z (D/=G/_B,/D/) | z (D/F/A/d/ f/^g/a/=c'/f/g/) | z (f/a/^e/g/) z (f/a/e/g/) | %6
 z (a/c'/c/f/) z (f/a/^B/f/) | (A/^B/f/a/e/B/ A/B/^d/a/e/B/) | (A/^B/f/a/e/B/ A/B/^d/a/d/B/) | %9
 (^A/c/=g/^a/f/c/ A/c/e/a/f/c/) | (^A/c/=g/^a/f/c/ A/c/e/a/g/c/) | %11
 (B/b/f/B/=A/=a/ A/a/=g/=G/F/f/) | (D/F/B/d/f/b/ d'/b/^g/^e/=e/d/) | %13
 (c/a/A/f/z/c/ z/ A/z/F/z/C/) :| z (3(A,/C/F/) (!>![Gd]/c/) z (3(A,/C/F/) (!>![Gd]/c/) | %15
 z (3(A,/C/F/) (!>![Gd]/c/) z (3(A,/C/F/) (!>![Gd]/c/) | %16
 z (3(A,/C/F/) (!>![Ae]/d/) z (3(^A,/C/F/) (!>![cf]/e/) | %17
 z (3(B,/D/F/) (!>![d=g]/f/) z (3(B,/D/^E/) (!>![da]/^g/) | %18
 z (3(A,/C/F/) (!>![ad']/c'/) (!>![fb]/a/) (!>![cg]/f/) (!>![Ad]/c/) | %19
 z (3(A,/C/=F/(3A/c/a/) ([Ada]2 =f) | z (3(_B,/D/=G/(3_B/d/_b/) ([B_eb]2 =g) | %21
[I:staff +1] (3(D,/=F,/^G,/[I:staff -1] (3A,/D/=F/(3A/d/=e/) (3(a/=f/d/(3A/d/e/(3a/f/d/) | %22
 (3(A/d/e/(3a/=f/d/(3A/d/e/ (3a/f/d/(3=F/A/c/(3f/d/A/) | %23
 (3(D/=F/^G/(3d/A/F/"_rit. poco"(3A,/D/E/ (3A/F/D/(3A,/D/E/(3F/A,/D/) |!p! [C^F]3!<(! [DF]3!<)! | %25
!>(! [A,DF]3!>)! [A,CF]3 | [F,B,DF]3 [=G,D=G]3 | (c/f/^g/c'/a/"_rit."f/ c/f/g/c'/a/f/) | %28
 (d/f/^a/d'/b/f/ d/g/b/d'/c'/d/) | (c/f/g/c'/a/"_dim."f/ c/f/g/c'/a/f/) | %30
 (A/c/^e/a/f/c/ F/A/^B/f/c/A/) | (C/F/G/c/A/F/ A,/C/^E/A/F/C/) | %32
[K:bass] z (F,/A,/^E,/G,/) z (F,/A,/E,/G,/) | z (A,/C/C,/F,/) z (F,/A,/A,,/C,/) | z6 | %35
 !fermata!z6 |] %36
V:4
!pp!!ped! (F,/C/) z (B,/D/) (F,/C/) z (B,/D/)!ped-up! | (F,/C/) z (B,/D/) (F,/C/) z (B,/D/) | %2
 (F,/C/) z2 (F,/A,/) z2 | (D,/A,/) z2 (D,/_B,/) z2 | %4
"^rit."!<(!!ped! (D,/A,/) z2!<)![K:treble]!mp! !>![D=c]3!ped-up! | %5
!pp! (^C/^c/) z (B/d/) (C/c/) z (B/d/) | (C/c/) z2 (F/A/) z (E |!pp! ^D2 E F2 E | %8
 ^D2 E F2)"^cresc." (F |!<(! E2!<)! F!mf!!>(! =G2!>)! F |!<(! E2 F =G2)!<)!!f! E | %11
!<(! F3!<)!!>(! D2!>)! C |!<(! [^G,B,]3!<)!!>(! [C^EG]3!>)! |!p! [F,F]2 (.F .C.A,.G,) :| %14
[K:bass]!p!"^dolce"!<(!!ped! (3(F,,/C,/F,/) z!<)! (!>![^E,G,D]/C/)!p!!<(! (3(F,,/C,/F,/) z!<)! (!>![E,G,D]/C/)!ped-up! | %15
!p! (3(F,,/C,/F,/) z (!>![^E,G,D]/C/) (3(F,,/C,/F,/) z (!>![E,G,D]/C/) | %16
 (3(F,,/C,/F,/) z (!>![F,A,E]/D/)!<(! (3(F,,/C,/F,/) z!<)! (!>![^A,CF]/E/) | %17
"^cresc." (3(F,,/D,/F,/) z (!>![B,D=G]/F/) (3(F,,/^E,/^G,/) z[K:treble] (!>![B,DA]/^G/) | %18
[K:bass]!<(! (3(F,,/C,/F,/) z!<)![K:treble]!f!!>(! (!>![FAd]/c/) (!>![CFB]/A/) (!>![A,CG]/F/)[K:bass] (!>![F,A,D]/!>)!!mp!C/) | %19
 (3(=F,,/C,/=F,/) z2 ([F,A,=F]2 D) | (3(=G,,/D,/=F,/) z2 ([G,_B,=G]2 _E) | %21
!f!!ped! x z2!>(! !>![D,,A,,]3-!ped-up!!>)! |!pp! [D,,A,,]6- | [D,,A,,]6 | [C,,C,]3 [B,,,B,,]3 | %25
 [A,,,A,,]6 |"^dim." [B,,,B,,]3 [B,,,B,,]3 |!pp!!<(! [C,,F,,C,]6!<)! | %28
!>(! [B,,,F,,B,,]3 [C,,^E,,C,]3!>)! |!pp! [F,,,C,,F,,]6- | [F,,,C,,F,,]6- | [F,,,C,,F,,]3 z2 z | %32
 (F,,/!ppp!C,/) z (B,,/D,/) (F,,/C,/) z (B,,/D,/) |!>(! (F,,/C,/) z z (F,,/A,,/) z z!>)! | %34
 .[F,,,F,,] z z .[F,,,F,,] z z | !fermata![F,,,F,,]6 |] %36
V:5
 x6 | x6 | x6 | x6 | x3[K:treble] x3 | x6 | x6 | x6 | x6 | x6 | x6 | D2 C B,2 A, | x6 | x6 :| %14
[K:bass] x6 | x6 | x6 | x5[K:treble] x |[K:bass] x2[K:treble] x3[K:bass] x | x6 | x6 | x6 | x6 | %23
 x6 | x6 | x6 | x6 | x6 | x6 | x6 | x6 | x6 | x6 | x6 | x6 | x6 |] %36
V:6
 x6 | x6 | x6 | x6 | x6 | x6 | x6 | x6 | x6 | x6 | x6 | x6 | x3 d3 | x6 :| x6 | x6 | x6 | x6 | x6 | %19
 x6 | x6 | z x5 | x6 | x6 | A,2 G, A,2!mp! G, | x6 | x6 | x6 | x6 | x6 | x6 | x6 |[K:bass] x6 | %33
 x6 | x6 | x6 |] %36

